static/images/new-logo.svg

<svg height="27" viewBox="0 0 144 27" width="144" xmlns="http://www.w3.org/2000/svg"><path d="m375.43534 490.395973c-.290228-.290829-.43534-.648767-.43534-1.073825v-14.395974c0-.425058.145112-.788589.43534-1.090604.290228-.302014.647427-.45302 1.071607-.45302s.78696.151006 1.08835.45302c.301391.302015.452085.665546.452085 1.090604v1.442954c1.562767-2.102919 3.315273-3.154363 5.25757-3.154363h.167438c.42418 0 .775798.145413 1.054863.436242.279066.290829.418597.648767.418597 1.073825s-.145112.771811-.435341 1.040269c-.290228.268457-.658589.402684-1.105094.402684h-.167439c-1.071612 0-2.053908.262861-2.946918.788591s-1.640895 1.247199-2.243676 2.164429v10.201343c0 .425058-.150694.782996-.452085 1.073825-.30139.290829-.66417.436242-1.08835.436242s-.781379-.145413-1.071607-.436242zm14.014607 0c-.837197-.402686-1.501364-.989929-1.992519-1.761745-.491156-.771816-.73673-1.661069-.73673-2.667785 0-1.655489.653004-2.975387 1.959031-3.959732s3.220389-1.47651 5.743142-1.47651h4.052013v-.268456c0-1.476517-.36278-2.539147-1.08835-3.187919-.725571-.648773-1.85856-.973155-3.399003-.973155-.848359 0-1.601825.067114-2.26042.201342-.658595.134229-1.389736.33557-2.193445.604027-.178602.044743-.323714.067114-.43534.067114-.334879 0-.625103-.123041-.870681-.369127s-.368365-.548097-.368365-.90604c0-.60403.290224-1.029082.870681-1.275168 1.897646-.805373 3.828751-1.208054 5.793374-1.208054 1.540442 0 2.840868.313196 3.901318.939597 1.060449.626402 1.841821 1.437356 2.344139 2.432886.502318.995531.753474 2.074939.753474 3.238255v9.496645c0 .425058-.150693.782996-.452084 1.073825s-.664171.436242-1.088351.436242-.781378-.145413-1.071607-.436242c-.290228-.290829-.43534-.648767-.43534-1.073825v-.872484c-1.652068 1.700233-3.75061 2.550336-6.295689 2.550336-.982311 0-1.892052-.20134-2.729248-.604027zm6.714285-2.802013c.915336-.480987 1.685545-1.079415 2.310652-1.795302v-2.818792h-3.65016c-3.371113 0-5.056644.88366-5.056644 2.651006 0 .805374.27348 1.454137.820449 1.946309.546968.492173 1.456709.738255 2.729248.738255.982311 0 1.93112-.24049 2.846455-.721476zm10.916994 2.802013c-.290229-.290829-.435341-.648767-.435341-1.073825v-21.778524c0-.425058.145112-.788589.435341-1.090604.290228-.302015.647426-.45302 1.071606-.45302s.78696.151005 1.088351.45302.452084.665546.452084 1.090604v13.724832l7.970075-7.38255c.334878-.290829.669752-.436242 1.004631-.436242.513481 0 .887423.145413 1.121838.436242s.351621.637582.351621 1.040268c0 .380316-.189762.760625-.569291 1.14094l-4.82223 4.328859 6.061275 8.053691c.223253.29083.334877.59284.334877.906041 0 .447429-.145112.805367-.43534 1.073825s-.658589.402685-1.105094.402685c-.223253 0-.446502-.055928-.669754-.167785-.223253-.111858-.413015-.268456-.569291-.469799l-5.759886-7.852349-2.913431 2.651007v4.328859c0 .425058-.150693.782996-.452084 1.073825s-.664171.436242-1.088351.436242-.781378-.145413-1.071606-.436242zm19.104738 0c-.837197-.402686-1.501364-.989929-1.992519-1.761745-.491156-.771816-.73673-1.661069-.73673-2.667785 0-1.655489.653004-2.975387 1.959031-3.959732 1.306028-.984345 3.220389-1.47651 5.743142-1.47651h4.052013v-.268456c0-1.476517-.36278-2.539147-1.08835-3.187919-.725571-.648773-1.85856-.973155-3.399003-.973155-.848359 0-1.601825.067114-2.26042.201342-.658595.134229-1.389736.33557-2.193445.604027-.178602.044743-.323714.067114-.43534.067114-.334879 0-.625103-.123041-.870681-.369127-.245577-.246086-.368365-.548097-.368365-.90604 0-.60403.290224-1.029082.870681-1.275168 1.897646-.805373 3.828752-1.208054 5.793374-1.208054 1.540442 0 2.840868.313196 3.901318.939597 1.060449.626402 1.841821 1.437356 2.344139 2.432886.502319.995531.753474 2.074939.753474 3.238255v9.496645c0 .425058-.150693.782996-.452084 1.073825s-.664171.436242-1.088351.436242-.781378-.145413-1.071606-.436242c-.290229-.290829-.435341-.648767-.435341-1.073825v-.872484c-1.652068 1.700233-3.75061 2.550336-6.295689 2.550336-.982311 0-1.892051-.20134-2.729248-.604027zm6.714285-2.802013c.915336-.480987 1.685545-1.079415 2.310652-1.795302v-2.818792h-3.65016c-3.371113 0-5.056644.88366-5.056644 2.651006 0 .805374.27348 1.454137.820449 1.946309.546968.492173 1.456709.738255 2.729248.738255.982311 0 1.93112-.24049 2.846455-.721476zm10.916994 2.802013c-.290229-.290829-.435341-.648767-.435341-1.073825v-14.395974c0-.425058.145112-.788589.435341-1.090604.290228-.302014.647427-.45302 1.071606-.45302.42418 0 .78696.151006 1.088351.45302.301391.302015.452084.665546.452084 1.090604v1.375839c.625107-.894859 1.378573-1.633106 2.26042-2.214765.881848-.581658 2.026-.872483 3.432491-.872483 1.250214 0 2.32181.335567 3.21482 1.006712.89301.671144 1.52927 1.48769 1.908799 2.449664 1.384166-2.304262 3.438058-3.456376 6.161739-3.456376 1.250214 0 2.293903.313196 3.1311.939597.837197.626402 1.456714 1.431763 1.858568 2.416108.401855.984345.602779 2.013417.602779 3.087248v9.66443c0 .425058-.150693.782996-.452084 1.073825s-.664171.436242-1.088351.436242c-.424179 0-.781378-.145413-1.071606-.436242-.290229-.290829-.435341-.648767-.435341-1.073825v-9.060403c0-1.454146-.256736-2.522368-.770217-3.204698s-1.395315-1.02349-2.645529-1.02349c-1.138588 0-2.081815.296418-2.829711.889262s-1.412063 1.370241-1.992519 2.332215v10.067114c0 .425058-.150693.782996-.452084 1.073825s-.664171.436242-1.088351.436242c-.424179 0-.781378-.145413-1.071606-.436242-.290229-.290829-.435341-.648767-.435341-1.073825v-9.060403c0-1.454146-.256736-2.522368-.770217-3.204698s-1.395315-1.02349-2.645529-1.02349c-1.138588 0-2.081815.296418-2.829711.889262s-1.412063 1.370241-1.992519 2.332215v10.067114c0 .425058-.150693.782996-.452084 1.073825s-.664171.436242-1.088351.436242c-.424179 0-.781378-.145413-1.071606-.436242zm-84.817243-22.395973h4c.552285 0 1 .447715 1 1v21c0 .552285-.447715 1-1 1h-4c-.552285 0-1-.447715-1-1v-21c0-.552285.447715-1 1-1zm-22 3h4c.552285 0 1 .447715 1 1v18c0 .552285-.447715 1-1 1h-4c-.552285 0-1-.447715-1-1v-18c0-.552285.447715-1 1-1zm-11 5h4c.552285 0 1 .447715 1 1v13c0 .552285-.447715 1-1 1h-4c-.552285 0-1-.447715-1-1v-13c0-.552285.447715-1 1-1zm22-12h4c.552285 0 1 .447715 1 1v25c0 .552285-.447715 1-1 1h-4c-.552285 0-1-.447715-1-1v-25c0-.552285.447715-1 1-1z" fill="#00b1e1" fill-rule="evenodd" transform="translate(-325 -464)"/></svg>

<?xml version="1.0" encoding="UTF-8"?>
<svg width="144px" height="27px" viewBox="0 0 144 27" version="1.1" xmlns="http://www.w3.org/2000/svg" xmlns:xlink="http://www.w3.org/1999/xlink">
    <!-- Generator: sketchtool 46.2 (44496) - http://www.bohemiancoding.com/sketch -->
    <title>DFC6FB85-12CD-47A0-BA8A-7BD1BD6B65E8</title>
    <desc>Created with sketchtool.</desc>
    <defs></defs>
    <g id="Page-1" stroke="none" stroke-width="1" fill="none" fill-rule="evenodd">
        <g id="Rakam-API-Screen" transform="translate(-127.000000, -33.000000)" fill="#00B1E1">
            <g id="top" transform="translate(-198.000000, -431.000000)">
                <path d="M375.43534,490.395973 C375.145112,490.105144 375,489.747206 375,489.322148 L375,474.926174 C375,474.501116 375.145112,474.137585 375.43534,473.83557 C375.725568,473.533556 376.082767,473.38255 376.506947,473.38255 C376.931127,473.38255 377.293907,473.533556 377.595297,473.83557 C377.896688,474.137585 378.047382,474.501116 378.047382,474.926174 L378.047382,476.369128 C379.610149,474.266209 381.362655,473.214765 383.304952,473.214765 L383.47239,473.214765 C383.89657,473.214765 384.248188,473.360178 384.527253,473.651007 C384.806319,473.941836 384.94585,474.299774 384.94585,474.724832 C384.94585,475.14989 384.800738,475.496643 384.510509,475.765101 C384.220281,476.033558 383.85192,476.167785 383.405415,476.167785 L383.237976,476.167785 C382.166364,476.167785 381.184068,476.430646 380.291058,476.956376 C379.398048,477.482106 378.650163,478.203575 378.047382,479.120805 L378.047382,489.322148 C378.047382,489.747206 377.896688,490.105144 377.595297,490.395973 C377.293907,490.686802 376.931127,490.832215 376.506947,490.832215 C376.082767,490.832215 375.725568,490.686802 375.43534,490.395973 Z M389.449947,490.395973 C388.61275,489.993287 387.948583,489.406044 387.457428,488.634228 C386.966272,487.862412 386.720698,486.973159 386.720698,485.966443 C386.720698,484.310954 387.373702,482.991056 388.679729,482.006711 C389.985756,481.022366 391.900118,480.530201 394.422871,480.530201 L398.474884,480.530201 L398.474884,480.261745 C398.474884,478.785228 398.112104,477.722598 397.386534,477.073826 C396.660963,476.425053 395.527974,476.100671 393.987531,476.100671 C393.139172,476.100671 392.385706,476.167785 391.727111,476.302013 C391.068516,476.436242 390.337375,476.637583 389.533666,476.90604 C389.355064,476.950783 389.209952,476.973154 389.098326,476.973154 C388.763447,476.973154 388.473223,476.850113 388.227645,476.604027 C387.982067,476.357941 387.85928,476.05593 387.85928,475.697987 C387.85928,475.093957 388.149504,474.668905 388.729961,474.422819 C390.627607,473.617446 392.558712,473.214765 394.523335,473.214765 C396.063777,473.214765 397.364203,473.527961 398.424653,474.154362 C399.485102,474.780764 400.266474,475.591718 400.768792,476.587248 C401.27111,477.582779 401.522266,478.662187 401.522266,479.825503 L401.522266,489.322148 C401.522266,489.747206 401.371573,490.105144 401.070182,490.395973 C400.768791,490.686802 400.406011,490.832215 399.981831,490.832215 C399.557651,490.832215 399.200453,490.686802 398.910224,490.395973 C398.619996,490.105144 398.474884,489.747206 398.474884,489.322148 L398.474884,488.449664 C396.822816,490.149897 394.724274,491 392.179195,491 C391.196884,491 390.287143,490.79866 389.449947,490.395973 Z M396.164232,487.59396 C397.079568,487.112973 397.849777,486.514545 398.474884,485.798658 L398.474884,482.979866 L394.824724,482.979866 C391.453611,482.979866 389.76808,483.863526 389.76808,485.630872 C389.76808,486.436246 390.04156,487.085009 390.588529,487.577181 C391.135497,488.069354 392.045238,488.315436 393.317777,488.315436 C394.300088,488.315436 395.248897,488.074946 396.164232,487.59396 Z M407.081226,490.395973 C406.790997,490.105144 406.645885,489.747206 406.645885,489.322148 L406.645885,467.543624 C406.645885,467.118566 406.790997,466.755035 407.081226,466.45302 C407.371454,466.151005 407.728652,466 408.152832,466 C408.577012,466 408.939792,466.151005 409.241183,466.45302 C409.542574,466.755035 409.693267,467.118566 409.693267,467.543624 L409.693267,481.268456 L417.663342,473.885906 C417.99822,473.595077 418.333094,473.449664 418.667973,473.449664 C419.181454,473.449664 419.555396,473.595077 419.789811,473.885906 C420.024226,474.176735 420.141432,474.523488 420.141432,474.926174 C420.141432,475.30649 419.95167,475.686799 419.572141,476.067114 L414.749911,480.395973 L420.811186,488.449664 C421.034439,488.740494 421.146063,489.042504 421.146063,489.355705 C421.146063,489.803134 421.000951,490.161072 420.710723,490.42953 C420.420495,490.697988 420.052134,490.832215 419.605629,490.832215 C419.382376,490.832215 419.159127,490.776287 418.935875,490.66443 C418.712622,490.552572 418.52286,490.395974 418.366584,490.194631 L412.606698,482.342282 L409.693267,484.993289 L409.693267,489.322148 C409.693267,489.747206 409.542574,490.105144 409.241183,490.395973 C408.939792,490.686802 408.577012,490.832215 408.152832,490.832215 C407.728652,490.832215 407.371454,490.686802 407.081226,490.395973 Z M426.185964,490.395973 C425.348767,489.993287 424.6846,489.406044 424.193445,488.634228 C423.702289,487.862412 423.456715,486.973159 423.456715,485.966443 C423.456715,484.310954 424.109719,482.991056 425.415746,482.006711 C426.721774,481.022366 428.636135,480.530201 431.158888,480.530201 L435.210901,480.530201 L435.210901,480.261745 C435.210901,478.785228 434.848121,477.722598 434.122551,477.073826 C433.39698,476.425053 432.263991,476.100671 430.723548,476.100671 C429.875189,476.100671 429.121723,476.167785 428.463128,476.302013 C427.804533,476.436242 427.073392,476.637583 426.269683,476.90604 C426.091081,476.950783 425.945969,476.973154 425.834343,476.973154 C425.499464,476.973154 425.20924,476.850113 424.963662,476.604027 C424.718085,476.357941 424.595297,476.05593 424.595297,475.697987 C424.595297,475.093957 424.885521,474.668905 425.465978,474.422819 C427.363624,473.617446 429.29473,473.214765 431.259352,473.214765 C432.799794,473.214765 434.10022,473.527961 435.16067,474.154362 C436.221119,474.780764 437.002491,475.591718 437.504809,476.587248 C438.007128,477.582779 438.258283,478.662187 438.258283,479.825503 L438.258283,489.322148 C438.258283,489.747206 438.10759,490.105144 437.806199,490.395973 C437.504808,490.686802 437.142028,490.832215 436.717848,490.832215 C436.293668,490.832215 435.93647,490.686802 435.646242,490.395973 C435.356013,490.105144 435.210901,489.747206 435.210901,489.322148 L435.210901,488.449664 C433.558833,490.149897 431.460291,491 428.915212,491 C427.932901,491 427.023161,490.79866 426.185964,490.395973 Z M432.900249,487.59396 C433.815585,487.112973 434.585794,486.514545 435.210901,485.798658 L435.210901,482.979866 L431.560741,482.979866 C428.189628,482.979866 426.504097,483.863526 426.504097,485.630872 C426.504097,486.436246 426.777577,487.085009 427.324546,487.577181 C427.871514,488.069354 428.781255,488.315436 430.053794,488.315436 C431.036105,488.315436 431.984914,488.074946 432.900249,487.59396 Z M443.817243,490.395973 C443.527014,490.105144 443.381902,489.747206 443.381902,489.322148 L443.381902,474.926174 C443.381902,474.501116 443.527014,474.137585 443.817243,473.83557 C444.107471,473.533556 444.46467,473.38255 444.888849,473.38255 C445.313029,473.38255 445.675809,473.533556 445.9772,473.83557 C446.278591,474.137585 446.429284,474.501116 446.429284,474.926174 L446.429284,476.302013 C447.054391,475.407154 447.807857,474.668907 448.689704,474.087248 C449.571552,473.50559 450.715704,473.214765 452.122195,473.214765 C453.372409,473.214765 454.444005,473.550332 455.337015,474.221477 C456.230025,474.892621 456.866285,475.709167 457.245814,476.671141 C458.62998,474.366879 460.683872,473.214765 463.407553,473.214765 C464.657767,473.214765 465.701456,473.527961 466.538653,474.154362 C467.37585,474.780764 467.995367,475.586125 468.397221,476.57047 C468.799076,477.554815 469,478.583887 469,479.657718 L469,489.322148 C469,489.747206 468.849307,490.105144 468.547916,490.395973 C468.246525,490.686802 467.883745,490.832215 467.459565,490.832215 C467.035386,490.832215 466.678187,490.686802 466.387959,490.395973 C466.09773,490.105144 465.952618,489.747206 465.952618,489.322148 L465.952618,480.261745 C465.952618,478.807599 465.695882,477.739377 465.182401,477.057047 C464.66892,476.374717 463.787086,476.033557 462.536872,476.033557 C461.398284,476.033557 460.455057,476.329975 459.707161,476.922819 C458.959265,477.515663 458.295098,478.29306 457.714642,479.255034 L457.714642,489.322148 C457.714642,489.747206 457.563949,490.105144 457.262558,490.395973 C456.961167,490.686802 456.598387,490.832215 456.174207,490.832215 C455.750028,490.832215 455.392829,490.686802 455.102601,490.395973 C454.812372,490.105144 454.66726,489.747206 454.66726,489.322148 L454.66726,480.261745 C454.66726,478.807599 454.410524,477.739377 453.897043,477.057047 C453.383562,476.374717 452.501728,476.033557 451.251514,476.033557 C450.112926,476.033557 449.169699,476.329975 448.421803,476.922819 C447.673907,477.515663 447.00974,478.29306 446.429284,479.255034 L446.429284,489.322148 C446.429284,489.747206 446.278591,490.105144 445.9772,490.395973 C445.675809,490.686802 445.313029,490.832215 444.888849,490.832215 C444.46467,490.832215 444.107471,490.686802 443.817243,490.395973 Z M359,468 L363,468 C363.552285,468 364,468.447715 364,469 L364,490 C364,490.552285 363.552285,491 363,491 L359,491 C358.447715,491 358,490.552285 358,490 L358,469 C358,468.447715 358.447715,468 359,468 Z M337,471 L341,471 C341.552285,471 342,471.447715 342,472 L342,490 C342,490.552285 341.552285,491 341,491 L337,491 C336.447715,491 336,490.552285 336,490 L336,472 C336,471.447715 336.447715,471 337,471 Z M326,476 L330,476 C330.552285,476 331,476.447715 331,477 L331,490 C331,490.552285 330.552285,491 330,491 L326,491 C325.447715,491 325,490.552285 325,490 L325,477 C325,476.447715 325.447715,476 326,476 L326,476 Z M348,464 L352,464 C352.552285,464 353,464.447715 353,465 L353,490 C353,490.552285 352.552285,491 352,491 L348,491 C347.447715,491 347,490.552285 347,490 L347,465 L347,465 C347,464.447715 347.447715,464 348,464 Z" id="Logo"></path>
            </g>
        </g>
    </g>
</svg>
